X: 551
T: Miss Blair's Strathspey
%R: strathspey
B: "Twenty Four Country Dances for the Year 1805", Tho. Preston, ed. p.236 #1
F: http://folkopedia.efdss.org/images/archive/0/02/20121211105513%21Preston_24_1805.PDF
Z: 2014 John Chambers <jc:trillian.mit.edu>
M: C|
L: 1/8
K: Bb
D |\
F>BD>B F>BdB | GBFd cCCD |\
F>BD>B FB dg | f>ed>c dBB :|
f |\
B>fd>f f>B (e/d/).c/.B/ | A>FcF dFcF |\
B>fd>g fBdg | f>edc dB-Bc |
B>fdg fd (e/d/).c/.B/ | A>FcF d>FcF |\
e<gd<f c<e G>B | A>c Ff dBB |]
%%begintext align
%% 1st Cu. lead round the 2d and 3d Cu.
%% and back again to their own places. lead down
%% the middle up again and allemande.
%%endtext

%%sep 1 1 500
%%sep 1 1 500
